X:1
T:Polka de Paimpol
C:Trad. Bretagne, appris de Marie-Françoise Couraud, tablature et abc : Bernard Loffet - Licence Creative Commons Paternité - BY NC ND 3.0
L:1/8
Q:440
M:2/2
K:C
|: [B2G,,2]G,A [G2G,,2][B2G,2] | [d2G,,2][e2G,2] [d2G,,2]G,2 | [c2D,,2][B2D,2] [A2D,,2][c2D,2] | \
 [B2D,,2][A2D,2] [G2G,,2]G,2 :|: [d2G,,2][B2G,2] [g2G,,2]G,2 | [d2G,,2][B2G,2] [d2G,,2]G,2 | \
 [c2D,,2]D,B [A2D,,2][c2D,2] |1 [B2D,,2][A2D,2] [B2G,,2][G2G,2] :|2 [B2D,,2][A2D,2] [G2G,,2]G,2 | \
W:Created with TablEdit http://www.tabledit.com/ by Bernard Loffet

